Obsidian-SemiLight/actions/22s/step_object_ChargedParticle.svg

<svg viewBox="0 0 22 22" xmlns="http://www.w3.org/2000/svg"><path d="m11 3c-1.1099924 0-2.1627019.2301498-3.1210938.6367188l.7753907.7753906c.7334079-.2617961 1.5199731-.4121094 2.3457031-.4121094 3.87797 0 7 3.122 7 7 0 .825723-.150315 1.612294-.412109 2.345703l.77539.775391c.406584-.958402.636719-2.011109.636719-3.121094 0-4.432-3.56803-8-8-8zm-8 2v1h5v-1zm.6367188 2.8789062c-.4065837.9584016-.6367188 2.0111091-.6367188 3.1210938 0 4.432 3.56803 8 8 8 1.109992 0 2.162702-.23015 3.121094-.636719l-.775391-.77539c-.733408.261796-1.519973.412109-2.345703.412109-3.87797 0-7-3.122-7-7 0-.825723.1503153-1.6122935.4121094-2.3457031zm12.3632812 6.1210938v2h-2v1h2v2h1v-2h2v-1h-2v-2z" fill="#4d4d4d"/></svg>

<svg xmlns="http://www.w3.org/2000/svg" viewBox="0 0 22 22">
  <defs id="defs3051">
    <style type="text/css" id="current-color-scheme">
      .ColorScheme-Text {
        color:#4d4d4d;
      }
      .ColorScheme-Highlight {
        color:#3daee9;
      }
      </style>
  </defs>
 <path 
     style="fill:currentColor;fill-opacity:1;stroke:none" 
     d="M 11 3 C 9.8900076 3 8.8372981 3.2301498 7.8789062 3.6367188 L 8.6542969 4.4121094 C 9.3877048 4.1503133 10.17427 4 11 4 C 14.87797 4 18 7.122 18 11 C 18 11.825723 17.849685 12.612294 17.587891 13.345703 L 18.363281 14.121094 C 18.769865 13.162692 19 12.109985 19 11 C 19 6.568 15.43197 3 11 3 z M 3 5 L 3 6 L 8 6 L 8 5 L 3 5 z M 3.6367188 7.8789062 C 3.2301351 8.8373078 3 9.8900153 3 11 C 3 15.432 6.56803 19 11 19 C 12.109992 19 13.162702 18.76985 14.121094 18.363281 L 13.345703 17.587891 C 12.612295 17.849687 11.82573 18 11 18 C 7.12203 18 4 14.878 4 11 C 4 10.174277 4.1503153 9.3877065 4.4121094 8.6542969 L 3.6367188 7.8789062 z M 16 14 L 16 16 L 14 16 L 14 17 L 16 17 L 16 19 L 17 19 L 17 17 L 19 17 L 19 16 L 17 16 L 17 14 L 16 14 z "
     class="ColorScheme-Text"
     />
</svg>
